X:1
T:Loire, CMD
T:Loire, CMD
T:Ada Rose Gibbs (1864-1905)
T:Public Domain Courtesy of the Cyber Hymnal™
C:Ada Rose Gibbs (1864-1905)
Z:Public Domain
Z:Courtesy of the Cyber Hymnal™
%%score ( 1 2 ) ( 3 4 )
L:1/8
Q:1/4=105
M:6/8
K:G
V:1 treble 
V:2 treble 
V:3 bass 
V:4 bass 
V:1
 G | [GB]2 [GB] (AB)[Gc] | [GB]2 [GB] [DG]2 [DG] | [FA]2 [FA] [Fd]2 [FA] | [GB]3- [GB]2 [GB] | %5
 [G^c]2 [Gc] (cB)[GA] | [Fd]2 [Fd] [GB]2 [GB] | (Ad)[FB] [Ge]2 [Gd] | ([F-d]3 [Fc]2) [Fc] | %9
 [GB]2 [GB] [Fc]2 [FA] | G2 [Gd] [Gd]2 [Gd] | [Ge]2 [Ge] [Ge]2 [Gc] | [Gd]3- [Gd]2 [Ac] | %13
 [GB]2 [GB] [Fc]2 [FA] | [Gd]2 [Gd] G2 [EA] | (Bc)[Gd] AB[FA] | G3- G2 |] %17
V:2
 G | x3 G2 x | x6 | x6 | x6 | x3 G2 x | x6 | F2 x4 | x6 | x6 | G2 x4 | x6 | x6 | x6 | x3 G2 x | %15
 G2 F2 x2 | G3- G2 |] %17
V:3
 [G,B,] | [G,D]2 [G,D] (CD)[G,E] | [G,D]2 [G,D] [G,B,]2 [G,B,] | [D,D]2 [D,D] [D,D]2 [D,D] | %4
 [G,D]3- [G,D]2 [G,D] | [E,E]2 [E,E] (ED)[A,^C] | [D,D]2 [D,D] [G,D]2 [G,D] | %7
 [A,D]2 [A,D] [A,^C]2 [A,C] | [D,D]3- [D,D]2 [D,D] | [G,D]2 [G,D] [A,D]2 [A,D] | %10
 [B,D]2 [B,D] [B,D]2 [B,D] | C2 [C,C] [C,C]2 [E,C] | [G,B,]3- [G,B,]2 [F,D] | %13
 [G,D]2 [G,D] [A,D]2 [A,D] | [B,D]2 [B,D] [CE]2 [CE] | [D,D]2 [D,B,] [D,C]2 [D,C] | %16
 [G,B,]3- [G,B,]2 |] %17
V:4
 x | x3 G,2 x | x6 | x6 | x6 | x3 A,2 x | x6 | x6 | x6 | x6 | x6 | C2 x4 | x6 | x6 | x6 | x6 | %16
 x5 |] %17

